X:94
T:Gort na Mona
R:slip jig
C:Michael Rooney
Z:hn-slipjig-94
M:9/8
L:1/8
K:G
G2B BAG ABc | d2g gfd BcA | G2B BAG ABc |1 ded ded BcA :|2 ded dge fga ||
b2a bge dgb | ~a3 aga bgd | ~e3 edB ABc | d2d dge fga |
b2g gba ged | ~e3 ede gdB | ~A3 ABG ABc | d2d dgf dcA ||
P:variations
|: G2B BAG ABc | d2g gfd BcA | G2B BAG ABc |1 ~A3 ded B2A :|2 d2d dge fga ||
b2a age dgb | ~a3 aga bgd | ~e3 edB ABc | d2d dge fga |
b2g gba ged | ~e3 ede gdB | ~A3 ABG ABc | d2d dgf dcA ||

